X: 7
T: The Warehouse
C: Neil Barron
P: Tune for "Inchmickery"
B: Roy Goldring "14 Social Dances for 2000"
R: jig
Z: 2015 John Chambers <jc:trillian.mit.edu>
M: 6/8
L: 1/8
K: C
G |\
"C"c2c cBc | "F"d2c "A7/E"A2G | "Dm"d2d "Dm/c"def | "G7/b"e2d "/d"B2G |
"Gm7"g2e "C7"Gge | "F"d2c "Dm"Agf | "D7/a"edc "G7"d2B | "C"c3 c2 :|
|: d |\
"C"e2c "C7"Gec | "F"d2c "A7/E"AGA | "Dm"f2d "A7/c#"Af^c | "D7"e2d "G7"BAB |
"Gm7"g2e "C7"Gge | "F"d2c "Dm"fgf | "D7/a"edc "G7"d2B | "C"c3 c2 :|

%%sep 1 1 500
%%sep 1 1 500

